docs/img/mail.svg

<svg width="42" height="40" viewBox="0 0 42 40" fill="none" xmlns="http://www.w3.org/2000/svg">
<mask id="mask0_0_4154" style="mask-type:alpha" maskUnits="userSpaceOnUse" x="0" y="0" width="41" height="40">
<path fill-rule="evenodd" clip-rule="evenodd" d="M40.8608 40.0002H0.845703L0.845703 0.000488281H40.8608V40.0002Z" fill="white"/>
</mask>
<g mask="url(#mask0_0_4154)">
<path fill-rule="evenodd" clip-rule="evenodd" d="M40.8608 20.0005C40.8608 31.0461 31.903 40.0005 20.8533 40.0005C9.80349 40.0005 0.845703 31.0461 0.845703 20.0005C0.845703 8.95409 9.80349 0.000488281 20.8533 0.000488281C31.903 0.000488281 40.8608 8.95409 40.8608 20.0005Z" fill="#1C8DE2"/>
</g>
<path fill-rule="evenodd" clip-rule="evenodd" d="M20.6521 14.6264C22.0775 14.6264 23.418 15.2568 24.4016 16.2432V16.2456C24.4016 15.7736 24.7201 15.416 25.1627 15.416L25.2739 15.4152C25.967 15.4152 26.1086 16.0696 26.1086 16.2768L26.1118 23.6376C26.0638 24.1192 26.6096 24.3688 26.9121 24.0592C28.095 22.844 29.5083 17.8152 26.1774 14.9016C23.0723 12.184 18.9051 12.632 16.6899 14.1592C14.3338 15.7824 12.8276 19.3768 14.2913 22.7536C15.8879 26.436 20.4545 27.5344 23.1691 26.4384C24.5432 25.884 25.1779 27.7416 23.7509 28.3472C21.5941 29.2664 15.5902 29.1736 12.786 24.3176C10.8909 21.0384 10.9917 15.2696 16.0168 12.2792C19.8614 9.9928 24.9306 10.6256 27.9869 13.816C31.1809 17.152 30.9953 23.3992 27.8789 25.8264C26.4671 26.9304 24.3704 25.8568 24.3832 24.2488L24.3688 23.7232C23.3852 24.6984 22.0775 25.2672 20.6521 25.2672C17.8351 25.2672 15.3581 22.7904 15.3581 19.976C15.3581 17.1328 17.8351 14.6264 20.6521 14.6264ZM24.1967 19.772C24.0902 17.7104 22.5601 16.4712 20.7114 16.4712H20.6409C18.5081 16.4712 17.3253 18.148 17.3253 20.0528C17.3253 22.1848 18.757 23.5328 20.6337 23.5328C22.7257 23.5328 24.1014 22.0008 24.2015 20.188L24.1967 19.772Z" fill="#FCA930"/>
</svg>

<svg width="42" height="40" viewBox="0 0 42 40" fill="none" xmlns="http://www.w3.org/2000/svg"><mask id="mask0_0_4154" style="mask-type:alpha" maskUnits="userSpaceOnUse" x="0" y="0" width="41" height="40"><path fill-rule="evenodd" clip-rule="evenodd" d="M40.86 40H.847V0H40.86v40z" fill="#fff"/></mask><g mask="url(#mask0_0_4154)"><path fill-rule="evenodd" clip-rule="evenodd" d="M40.86 20c0 11.046-8.957 20-20.007 20S.846 31.047.846 20 9.803 0 20.853 0s20.008 8.954 20.008 20z" fill="#1C8DE2"/></g><path fill-rule="evenodd" clip-rule="evenodd" d="M20.652 14.626c1.425 0 2.766.63 3.75 1.617v.003c0-.472.318-.83.76-.83h.112c.693 0 .835.654.835.86l.003 7.362c-.048.481.498.73.8.421 1.183-1.215 2.596-6.244-.735-9.157-3.105-2.718-7.272-2.27-9.487-.743-2.356 1.623-3.862 5.218-2.399 8.595 1.597 3.682 6.163 4.78 8.878 3.684 1.374-.554 2.009 1.304.582 1.91-2.157.918-8.16.826-10.965-4.03-1.895-3.28-1.794-9.048 3.23-12.039 3.845-2.286 8.915-1.653 11.97 1.537 3.195 3.336 3.01 9.583-.107 12.01-1.412 1.104-3.509.03-3.496-1.577l-.014-.526a5.246 5.246 0 01-3.717 1.544c-2.817 0-5.294-2.477-5.294-5.291 0-2.843 2.477-5.35 5.294-5.35zm3.545 5.146c-.107-2.062-1.637-3.3-3.486-3.3h-.07c-2.133 0-3.316 1.676-3.316 3.58 0 2.133 1.432 3.48 3.309 3.48 2.092 0 3.467-1.531 3.567-3.344l-.004-.416z" fill="#FCA930"/></svg>
